X:1
T:5 Lieder, Op.10
T:Im Herbste
T:4. Im Herbste
T:Fanny (Mendelssohn) Hensel
T:Emanuel Geibel
T:5 Lieder, Op.10
T:OpenScore (CC0) 
T:OpenScore (CC0) 
C:Fanny (Mendelssohn) Hensel
Z:Emanuel Geibel
Z:OpenScore (CC0)
Z:
%%score 1 { ( 2 5 6 ) | ( 3 4 ) }
L:1/8
Q:1/4=72
M:4/4
K:Bb
V:1 treble nm="Singstimme"
V:2 treble nm="Pianoforte"
V:5 treble 
V:6 treble 
V:3 bass 
V:4 bass 
V:1
"^Adagio." z4 z2 d d | e2 d2 c2 B2 | B2 A2 z2 B A | d3 d e3 d | d2 ^c2 =c2 c2 | e2 (dc) c2 c2 | %6
w: Auf des|Gar- tens Mau- er-|zin- ne, bebt noch|ei- ne einz'- ge|Ran- ke, al- so|bebt in * mei- nem|
 e2 (dc) f2 (ed) | d2 c2 B2 =E2 | F3 F e4 | d2 z2 z4 | z8 | z4 _c3 c | _c2 B2 _A3 B | %13
w: Sin- ne, * schmerz- lich *|nur noch ein, noch|ein Ge- dan-|ke.||Kaum ver-|mag ich ihn zu|
 _A2 _G2 _c3 c | e2 (_d_c) c2 B2 | _f2 (e_d) d2 c2 | !fermata!_g4 z _G F E | B2 z2 z2 B B | %18
w: fas- sen, a- ber|den- noch * von mir|las- sen * will er,|ach! zu kei- ner|Frist. Kaum ver-|
 _c3 c d3 f | f2 e2 z2 B B | _d3 d c2 B2 | _d3 d c2 B2 | !fermata!g4 z G A G | ^F2 z2 A3 A | %24
w: mag ich ihn zu|fas- sen, a- ber|den- noch von mir|las- sen will er,|ach! zu kei- ner|Frist; und so|
 (dB) (AG) ^F3 F | (dB) (AG) d3 d | (ge) (dc) =B3 B | (g4 ^f2 =f2 | =e2 _e2) d2 c B | %29
w: denk' * ich * ihn und|tra- * ge * al- le|Näch- * te, * al- le|Ta- * *|* * ge, mit mir|
 (BG) (FE) e3 e | e2 c2 B2 _A2 | G3 ^F B3 A | G2 z2 (df) (ed) | ^c3 c (=ce) (dc) | %34
w: fort * die * dump- fe|Kla- ge, dass du|mir ver- lo- ren|bist, dass * du *|mir ver- lo- * ren *|
 =B2 z2 (_B_d) (cB) | (A2 B) c (B2 A) G | G2 z2 z4 | z8 |] %38
w: bist, dass * du *|mir * ver- lo- * ren|bist.||
V:2
 z [GB][^FA][Ac] [GB][Bd][Ac][GB] | [^FAe]c[GBd][=FA] [EGc][^FA][DGB]E | [^CB]=EAG [D^F]c[_EFB]A | %3
 dD[GB]d z B,[EG]B | z A,[=EG]A c[CA]c[CG] | eE[^FAd]c c[CA]c[CG] | eE[^FAd]c =f=F[_A=Be]d | %7
 d[F_A]c[EG] B[B,_D]=E[B,D] | F[B,D][DF][FB] [EA]4 | B[DF][FB][Bd] b2 _g>f | %10
 f[FB][Bd][df] [_GB_g]2 [Ae]>d | d[B,D][DF][FB] z [_CD][DF][F_c] | %12
 z [B,E][E_G][GB] z [_CE_A]2 [B,DF] | _A[B,D]_G[B,E] _c[_CD][DF][Fc] | eE[_G_d]_c c[_FG]B[FG] | %15
 _f_F[Be]_d d[E_G]c[EG] | z [CE][E_G][Gc] !fermata![ce]4 | z DF[DB] [Fd]4 | z DF[D_c] [Fd]4 | %19
 z E_G[EB] [Ge]4 | z [F,_D][B,F][DB] [F_d]4 | z [G,_D][B,G][DB] [G_d]4 | %22
 z [G,^C][B,G][CB] !fermata![G^c]4 | z A,D^F AcBA | [DA]2 [DG]2 AcBA | [DA]2 [DG]2 dfed | %26
 [Gd]2 [Gc]2 dfed | g4 x4 | [Gc=e]_B[^F_A_e]=A [GBd][=FA][Gc][FB] | [EB]6 [B,EG]2 | [_A,E_A]8 | %31
 z2 [B,=EG]2 [B,DG]2 [CD^F]2 | G[B,D][DG][GB] [Bd][Acf][GBe][FAd] | ^c4 [A=c][GB_e][^FAd][_EFc] | %34
 =B4 _B_dcB | =E^F[GB][Ac] [DGB]2 [CDF]2 | G[=B,D][CE][DF] [E^F]Ac^f | [Ac^f]4 [G=Bg]2 z2 |] %38
V:3
 [G,,G,]8 | [G,,G,]8 | [A,,A,]4 [D,,D,]2 [C,,C,]2 | [B,,,B,,]4 [G,,,G,,]4 | %4
 [A,,,A,,]4 [^F,,^F,]2 [_E,,_E,]2 | [C,,C,]4 [^F,,^F,]2 [E,,E,]2 | [C,,C,]4 [D,_A,=B,]4 | %7
 [_A,=B,]2 [G,C]2 [=E,,=E,]2 [G,,G,]2 | [F,,F,]4 [F,C]4 | [B,,B,]4 _G2 E2 | [B,,D]4 E2 C2 | %11
 B,,4 [_A,,_A,]4 | [_G,,_G,]4 [F,,F,]2 [B,,,B,,]2 | F,2 E,2 x4 | [_G,_C]4 [G,_D]2 [_G,,G,]2 | %15
 [=G,_D]4 _A,2 _A,,2 | [=A,,=A,]8 | x F,B, x x4 | x F,_A, x x4 | x _G,B, x x4 | F,,8 | [=E,,=E,]8 | %22
 [_E,,_E,]8 | D,2 ^F,A, [C,F,A,]4 | [B,,,B,,]2 [B,,B,]2 [C,^F,A,]4 | %25
 [B,,,B,,]2 [B,,B,]2 [F,=B,D]4 | [E,,E,]2 [E,E]2 [F,=B,D]4 | [E,,E,]2 [E,E]2 [D,D]4- | %28
 [D,D]6 [E,E][D,D] | [_D,G,B,]6 [_D,,_D,]2 | [C,,C,]8 | z2 [^C,,^C,]2 [D,,D,]2 [D,,D,]2 | %32
 [G,,,G,,]4 [G,,G,]4 | [A,,A,]4 [D,,D,]4 | [G,,G,]4 [C,,C,]4 | [^C,,^C,]4 [D,,D,]2 [D,,D,]2 | %36
 [G,,,G,,]2 z2 z CEC | [G,-E]4 [G,D]2 z2 |] %38
V:4
 x8 | x8 | x8 | x8 | x8 | x8 | x8 | E,4 x4 | x8 | x4 B,4 | x4 B,4 | x8 | x8 | E,,4 [_A,,_A,]4 | %14
 x8 | x8 | x8 | B,,8 | _A,,8 | _G,,8 | x8 | x8 | x8 | x8 | x8 | x8 | x8 | x8 | x8 | x8 | x8 | x8 | %32
 x8 | x8 | x8 | x8 | x8 | x8 |] %38
V:5
 x8 | x8 | x8 | x8 | x8 | x8 | x8 | x8 | x8 | x4 [Be]4 | x8 | x8 | x8 | x8 | x8 | x8 | x8 | x8 | %18
 x8 | x8 | x8 | x8 | x8 | x4 [E^F]4 | x4 [E^F]4 | x4 [_A=B]4 | x4 _A4 | z Gc^c [Ad^f]=c[_A_B=f]=B | %28
 x8 | x8 | x8 | x8 | x8 | [=EG][GB][^FA][EG] x4 | [D=F][F_A][=EG][DF] [EG]4 | x8 | x8 | x8 |] %38
V:6
 x8 | x8 | x8 | x8 | x8 | x8 | x8 | x8 | x8 | x8 | x8 | x8 | x8 | x8 | x8 | x8 | x8 | x8 | x8 | %19
 x8 | x8 | x8 | x8 | x8 | x8 | x8 | x8 | x8 | x8 | x8 | x8 | x8 | x8 | x8 | x8 | A2 x2 x4 | x8 | %37
 x8 |] %38

